packages/kaspersky-hexa-ui-icons/src/iconsSVGs/16/IsolateHost.svg

<svg width="16" height="16" viewBox="0 0 16 16" fill="none" xmlns="http://www.w3.org/2000/svg">
<path d="M7.31839 1.34963C7.57408 1.09765 7.98562 1.10066 8.2376 1.35635L10.8662 4.02371H11.6123C12.5236 4.02371 13.2623 4.76244 13.2623 5.67371V6.39649H14.4002C14.7592 6.39649 15.0502 6.6875 15.0502 7.04649V9.51198C15.0502 9.87096 14.7592 10.162 14.4002 10.162H12.2347L10.9347 8.86198H13.7502V7.69649H12.6123C12.2533 7.69649 11.9623 7.40547 11.9623 7.04649V5.67371C11.9623 5.48041 11.8056 5.32371 11.6123 5.32371H7.39639L6.09639 4.02371H9.04106L7.31167 2.26884C7.05969 2.01316 7.0627 1.60161 7.31839 1.34963Z" fill="black"/>
<path fill-rule="evenodd" clip-rule="evenodd" d="M8.68665 10.162L12.7206 14.1959C12.9744 14.4497 13.386 14.4497 13.6398 14.1959C13.8937 13.9421 13.8937 13.5305 13.6398 13.2767L2.46429 2.10115C2.21045 1.84731 1.7989 1.84731 1.54506 2.10115C1.29122 2.35499 1.29122 2.76655 1.54506 3.02039L4.9674 6.44273H4.83971C2.69159 6.44273 0.950195 8.18413 0.950195 10.3323C0.950195 12.4804 2.69159 14.2218 4.83971 14.2218H9.36505C9.72404 14.2218 10.0151 13.9308 10.0151 13.5718C10.0151 13.2128 9.72404 12.9218 9.36505 12.9218H4.83971C3.40956 12.9218 2.2502 11.7624 2.2502 10.3323C2.2502 8.9021 3.40956 7.74273 4.83971 7.74273H5.22937V9.51198C5.22937 9.87096 5.52039 10.162 5.87937 10.162H8.68665ZM7.38665 8.86198L6.52937 8.0047V8.86198H7.38665Z" fill="black"/>
</svg>

<svg xmlns="http://www.w3.org/2000/svg" width="16" height="16" fill="none" viewBox="0 0 16 16"><path fill="#000" d="M7.3184 1.3496a.65.65 0 0 1 .9192.0068l2.6286 2.6673h.7461c.9113 0 1.65.7387 1.65 1.65v.7228h1.1379a.65.65 0 0 1 .65.65V9.512a.65.65 0 0 1-.65.65h-2.1655l-1.3-1.3h2.8155V7.6965h-1.1379a.65.65 0 0 1-.65-.65V5.6737a.35.35 0 0 0-.35-.35h-4.216l-1.3-1.3h2.9448L7.3117 2.2688a.65.65 0 0 1 .0067-.9192"/><path fill="#000" fill-rule="evenodd" d="m8.6867 10.162 4.0339 4.0339a.65.65 0 0 0 .9192-.9192L2.4643 2.1012a.65.65 0 1 0-.9192.9192l3.4223 3.4223h-.1277c-2.1481 0-3.8895 1.7414-3.8895 3.8896 0 2.1481 1.7414 3.8895 3.8895 3.8895h4.5254a.65.65 0 1 0 0-1.3H4.8397c-1.4301 0-2.5895-1.1594-2.5895-2.5895s1.1594-2.5896 2.5895-2.5896h.3897V9.512c0 .359.291.65.65.65zm-1.3-1.3-.8573-.8573v.8573z" clip-rule="evenodd"/></svg>
